X:1
T:James Gibb editions
T:Psalm 90 (Becker) - Schütz
%%score [ ( 1 2 ) ( 3 4 ) ]
L:1/8
Q:1/4=98
M:2/2
K:F
V:1 treble nm="Soprano Alto"
V:2 treble 
V:3 bass nm="Tenor Bass"
V:4 bass 
V:1
"^Cornelius Becker\n(1561-1604)""^Psalm 90, SWV 188""^Heinrich Schütz\n(1585-1672)" D4 | %1
w: Herr|
w: |
w: du|
 G2 A2 (B3 c | d2) c2 B4 | A4 G2 C2 | G2 G2 (A3 B | c2) B2 A4 |[M:2/2] G4 F4 | F4 G4 | G2 c4 A2 | %9
w: Gott Va- ter *|* im höch-|sten Thron, durch|Je- sum Chri\- *|* stum dei-|nen Sohn|tust du|groß Gnad be-|
w: ||||||||
w: Schöp- ~fer al\- *|* ler Kre-|a- tur bist|un- ser Zu\- *|* ~flucht für|und für,|da- ~für|solln wir dir|
 B4 A8 :| G4 | c6 d2 | _e2 d2 d2 c2 | d4 d4 | c6 B2 | f2 d2 c4 | B4 F4 | (A3 B c2) A2 | %18
w: wei- sen,||||||den be- rei-|tet durch|dein * * Wort,|
w: |Eh|denn die|Welt ge- schaf- fen|wurd, die|Berg wur-||||
w: dan- ~ken.|||||||||
 d2 c2 B2 B2 | A4 F4 | G6 F2 | _E2 E2 D4 | C4 C4 | G2 F2 G2 A2 | B2 A2 G2 =F2 | G2 A2 B2 B2 | %26
w: welchs sie hält und|führt und|al- le|Din- ge lei-|tet, von||||
w: ||||||||
w: ||||||||
 c4 F4 | G4 F4 | _E4 (D2 G2- | G2) ^F2 G8 |] %30
w: ||||
w: ||||
w: ||||
V:2
 B,4 | D2 D2 (D3 C | B,2) A,2 D4 | D4 D2 G,2 | C2 D2 (C3 B, | A,2) D2 F4 |[M:2/2] E4 F4 | C4 E4 | %8
w: ||||||||
 E2 E4 D2 | D4 D8 :| D4 | F6 F2 | G2 F2 G2 G2 | ^F4 =F4 | F6 D2 | D2 F2 F4 | F4 D4 | %17
w: |||||||||
 (F3 E/D/ C2) F2 | D2 F2 F2 E2 | F4 C4 | _E6 D2 | B,2 C2 =B,4 | C4 C4 | E2 D2 E2 ^F2 | %24
w: ||||||E- wig- keit zu|
 G2 ^F2 G2 D2 | D2 D2 G2 F2 | _E4 D4 | D4 D4 | C4 (A,2 C2) | D4 D8 |] %30
w: E- wig- keit, ohn|An- fang und ohn|En- de|bist du|Gott al\- *|le Zeit.|
V:3
 G,4 | B,2 A,2 G,4 | F,2 (A,3 G, G,2- | G,2) ^F,2 G,2 E,2 | E,2 D,2 E,4- | E,2 G,2 C4 | %6
[M:2/2] C4 C4 | A,4 C4 | G,2 A,4 ^F,2 | G,4 ^F,8 :| B,4 | A,6 B,2 | G,2 B,2 G,2 G,2 | A,4 B,4 | %14
 A,6 G,2 | A,2 B,2 A,4 | B,4 B,4 | (C3 B, A,2) C2 | B,2 C2 D2 G,2 | C4 A,4 | C6 A,2 | G,2 G,2 G,4 | %22
 G,4 G,4 | C2 A,2 C2 C2 | D2 D2 D2 A,2 | B,2 A,2 G,2 B,2- | B,2 A,2 B,4 | B,4 B,4 | %28
 G,4 (^F,2 G,2) | A,4 =B,8 |] %30
V:4
 G,,4 | G,,2 ^F,,2 (G,,3 A,, | B,,2) F,,2 G,,4 | D,4 G,,2 C,2 | C,2 B,,2 A,,4- | A,,2 G,,2 F,,4 | %6
[M:2/2] C,4 F,,4 | F,4 C,4 | C,2 A,,4 D,2 | G,,4 D,8 :| G,4 | F,6 D,2 | C,2 D,2 _E,2 E,2 | %13
 D,4 B,,4 | F,6 G,2 | D,2 B,,2 F,4 | B,,4 B,,4 | F,6 F,2 | B,2 A,2 G,2 G,2 | F,4 F,4 | C,6 D,2 | %21
 _E,2 C,2 G,,4 | C,4 C,4 | C,2 D,2 C,2 A,,2 | G,,2 D,2 G,,2 D,2 | G,2 F,2 _E,2 D,2 | C,4 B,,4 | %27
 G,,4 B,,4 | C,4 (D,2 _E,2) | D,4 G,,8 |] %30

